X:1301
T:Bedford Waltz
C:Andy De Jarlis
M:3/4
L:1/8
K:D
AG|F3 E FA|G3 F GA|F2 A2 d2|f3 c dB|!
A2 g3 f|e3 d ec|A2 a2 a2|af fd dA|!
F3 E FA|G3 F GA|F2 A2 d2|f3 c dB|!
A2 g3 f|e3 d ef|d4 de|d4:|!
K:G
ef|g2 f2 e2|de dc BA|G4 DG|B3 A GB|!
A4 FA|d3 e dc|B6|d2 e2 f2|!
g2 f2 e2|de dc BA|G4 DG|B3 A GB|!
A4 FA|d4 F2|G3 D FA|G4:|!
